!!!COM: Beethoven, Ludwig van
!!!CDT: 1770///-1827///
!!!OTL: Piano Sonata no. 9 in E major
!!!OPS: 14
!!!ONM: 1
!!!OMV: 1
!!!OMD: Allegro
**kern	**kern	**dynam
*staff2	*staff1	*staff1/2
*Ipiano	*Ipiano	*Ipiano
*>[I,A,A,B]	*>[I,A,A,B]	*>[I,A,A,B]
*>norep[I,A,B]	*>norep[I,A,B]	*>norep[I,A,B]
*>I	*>I	*>I
*clefF4	*clefG2	*
*k[f#c#g#d#]	*k[f#c#g#d#]	*
*E:	*E:	*
*M4/4	*M4/4	*
*MM132	*MM132	*
=1-	=1-	=1-
8r	(2b	p
8E 8G# 8BL	.	.
8E 8G# 8B	.	.
8E 8G# 8BJ	.	.
8r	2e\ 2ee\	.
8E 8G# 8BL	.	.
8E 8G# 8B	.	.
8E 8G# 8BJ	.	.
=2!|:	=2!|:	=2!|:
*>A	*>A	*>A
8r	2cc#	.
8E 8A 8c#L	.	.
8E 8A 8c#	.	.
8E 8A 8c#J	.	.
8r	2f# 2ff#)	.
8E 8A 8c#L	.	.
8E 8A 8c#	.	.
8E 8A 8c#J	.	.
=3	=3	=3
8r	(2dd#	<
8E 8F# 8A 8d#L	.	.
8E 8F# 8A 8d#	.	.
8E 8F# 8A 8d#J	.	.
8r	2b 2bb)	[
8E 8F# 8A 8d#L	.	.
8E 8F# 8A 8d#	.	.
8E 8F# 8A 8d#J	.	.
=4	=4	=4
2.E 2.G# 2.B 2.e	(4.bb	>
.	16ccc#LL	.
.	16ddd#JJ	.
.	4eee')	]
4r	4r	.
!!LO:LB:g=z
=5	=5	=5
2r	(16gg#LL	p
.	16ee	.
.	16aa	.
.	16ff#JJ	.
.	16bbLL	.
.	16gg#	.
.	16ccc#	.
.	16aaJJ	.
*clefG2	*	*
(16g#LL	4bb)	.
16e	.	.
16a	.	.
16f#JJ	.	.
16bLL	4r	.
16g#	.	.
16cc#	.	.
16aJJ	.	.
*	*clefF4	*clefF4
=6	=6	=6
4b/)	(16G#LL	<
.	16E	.
.	16A	.
.	16F#JJ	.
4r	16BLL	.
.	16G#	.
.	16c#	.
.	16AJJ	.
*clefF4	*	*
(16GG#LL	4B)	.
16EE	.	.
16AA	.	.
16FF#JJ	.	.
16BBLL	4r	.
16GG#	.	.
16C#	.	.
16AA#JJ)	.	.
*	*clefG2	*clefG2
=7	=7	=7
*^	*^	*
4rA	1BB	8r	8r	.
.	.	(8BL	[4.B	.
8rA	.	8g#	.	.
(<8G#	.	8eJ	.	.
8D#L	.	8aL	2B]	.
8F#J	.	8f#	.	.
4A)	.	8d#	.	.
.	.	8bJ)	.	.
*v	*v	*	*	*
*	*v	*v	*
!!LO:LB:g=z
=8	=8	=8
*^	*^	*
(32qBBLLL	.	.	.	f
32qE	.	.	.	.
32qG#JJJ	.	.	.	.
1B)	4rA>	8ryy	8r	.
.	.	(>8bL	[4.bsSSs\	.
.	8rc>	8gg#	.	.
.	(8g#>	8eeJ	.	.
.	8d#>L	8aanL	2b]\	.
.	8f#>J	8ff#	.	.
.	4a>)	8dd#	.	.
.	.	8bbJ)	.	.
*v	*v	*	*	*
=9	=9	=9	=9
4e 4g#	(4.bb	2b	>
(4G#	.	.	.
.	16aaLL	.	.
.	16gg#JJ	.	.
4A	8ff#L	2cc#	.
.	8ee	.	.
4A#)	8dd#	.	.
.	8cc#J)	.	]
*	*v	*v	*
=10	=10	=10
*^	*^	*
*	*	*	*^	*
(2B	2rBB	1b	(>4g#/	(<2.e\	.
.	.	.	4gn/	.	.
4A#	2BB	.	2f#/)	.	.
4An	.	.	.	4d#\)	.
*v	*v	*	*	*	*
*	*	*v	*v	*
=11	=11	=11	=11
4E 4G#)	4.b	2B 2e	p
(4GG#	.	.	.
.	16aLL	.	.
.	16g#XJJ	.	.
4AA	8f#L	2c#	.
.	8e	.	.
4AA#)	8d#	.	.
.	8c#J	.	.
*	*v	*v	*
*	*clefF4	*clefF4
=12	=12	=12
*^	*^	*
*	*	*	*^	*
(2BB	2r	1B	(>4G#/	(<2.E\	.
.	.	.	4Gn/	.	.
4AA#	2BBB	.	2F#/)	.	.
4AAn)	.	.	.	4D#\)	.
*v	*v	*	*	*	*
*	*v	*v	*v	*
!!LO:LB:g=z
=13	=13	=13
8r	(2B	p
8EE 8GG#L	.	.
8EE 8GG#	.	.
8EE 8GG#J	.	.
8r	2E 2e	.
8EE 8GG#L	.	.
8EE 8GG#	.	.
8EE 8GG#J	.	.
=14	=14	=14
8r	2c#	.
8EE 8AAL	.	.
8EE 8AA	.	.
8EE 8AAJ	.	.
8r	2F# 2f#)	.
8EE 8AA#L	.	.
8EE 8AA#	.	.
8EE 8AA#J	.	.
*	*clefG2	*clefG2
=15	=15	=15
8r	2G#'> 2g#'>	.
8EE 8BBL	.	<
8EE 8BB	.	.
8EE 8BBJ	.	.
8r	2A'> 2a'>	.
8EE 8CnL	.	.
8EE 8C	.	.
8EE 8CJ	.	.
=16	=16	=16
*^	*	*
2ryy	8r	2A#'> 2a#'>	.
.	8EE 8C#XL	.	.
.	8EE 8C#	.	.
.	8EE 8C#J	.	.
2Dn	8EE#L	2B (>2b	f
.	8EE#	.	.
.	8EE#	.	.
.	8EE#J	.	.
=17	=17	=17	=17
*	*	*^	*
2C#	8FF#L	4a#	2A#	.
.	8FF#	.	.	.
.	8FF#	4f#)	.	.
.	8FF#J	.	.	.
2BB 2G#	8FF#L	(2ddn	(4.e#	p
.	8FF#	.	.	.
.	8FF#	.	.	.
.	8FF#J	.	16f#LL	.
.	.	.	16g#JJ)	.
!!LO:LB:g=z
=18	=18	=18	=18	=18
2AA# 2F#	8FF#L	4cc#	2c#	.
.	8FF#	.	.	.
.	8FF#	4a#)	.	.
.	8FF#J	.	.	.
!	!	!	!	!LO:DY:rj
2Dn 2G#	8FF#L	(2b	2B 2e#	f
.	8FF#	.	.	.
.	8FF#	.	.	.
.	8FF#J	.	.	.
=19	=19	=19	=19	=19
2C# 2F#	8FF#L	4a#	2A#	.
.	8FF#	.	.	.
.	8FF#	4f#)	.	.
.	8FF#J	.	.	.
!	!	!	!	!LO:DY:rj
2BB 2G#	8FF#L	(2ddn	4.e#	p
.	8FF#	.	.	.
.	8FF#	.	.	.
.	8FF#J	.	16f#LL	.
.	.	.	16g#JJ	.
=20	=20	=20	=20	=20
2AA# 2F#	8FF#L	4cc#	2c#	.
.	8FF#	.	.	.
.	8FF#	4a#)	.	.
.	8FF#J	.	.	.
2BB 2Dn 2G#	8FF#L	2g# (2ee#	(>4.b	sf
.	8FF#	.	.	.
.	8FF#	.	.	.
.	8FF#J	.	16cc#LL	.
.	.	.	16ddnJJ)	.
=21	=21	=21	=21	=21
4C#' 4F#'	4FF# 4AA#	4ff#)	4a# 4cc#	f
4r	4ryy	4r	4ryy	.
4FF#' 4F#'	4ryy	4ryy	4A#' 4c#' 4f#'	.
4r	4ryy	4r	4ryy	.
*	*	*v	*v	*
*v	*v	*	*
=22	=22	=22
4FFF# 4FF#	4AA#<' 4C#<' 4F#<'	.
4r	4r	.
2r	(8ff#L	p
.	8ee	.
.	8dd#X	.
.	8cc#J)	.
!!LO:LB:g=z
=23	=23	=23
1r	2b	.
.	(4b#'	.
.	4cc#'	.
=24	=24	=24
1r	4cc##'	.
.	4dd#'	.
.	4ee'	.
.	4ff#')	.
=25	=25	=25
*	*^	*
2r	(4ff##	2rg	.
.	2gg#^	.	.
*clefG2	*	*	*
((2B# 2d#	.	[2g#	<
.	[4ff#	.	[[
=26	=26	=26	=26
2c# 2e))	4ff#]	2g#]	>
.	4ee)	.	]]
*	*v	*v	*
.	(dd#32q/LLL	.
.	ee32q/	.
.	ff#32q/JJJ	.
2r	(8eeL)	.
.	8dd#	.
.	8cc#X	.
.	8bJ)	.
=27	=27	=27
1r	2a#\	.
.	(4b'	.
.	4b#'	.
=28	=28	=28
1r	4cc#'	.
.	4cc##'	.
.	4dd#'	.
.	4ee')	.
*clefF4	*	*
!!LO:LB:g=z
=29	=29	=29
*	*^	*
2r	(4ee#	2re	.
.	2ff#	.	.
((2A# 2c#	.	[2f#	<
.	[4een	.	[[
=30	=30	=30	=30
2B 2d#))	4ee]	2f#]	>
.	4dd#)	.	.
*clefG2	*	*	*
(8f#L	2r	2r	] p
8e	.	.	.
8d#	.	.	.
8c#J)	.	.	.
*	*v	*v	*
=31	=31	=31
(2B	2r	.
*	*clefF4	*clefF4
4B#	(8F#L	p
.	8E	.
4c#)	8D#	.
.	8C#J)	.
=32	=32	=32
(4c##	4BB#	.
4d#	4r	.
*	*clefG2	*clefG2
4e	(8ff#L	.
.	8ee	.
4f#)	8dd#	.
.	8cc#J)	.
=33	=33	=33
*^	*	*
(4f##	1G#	2b#	<
2g#	.	.	[[
.	.	[2b# [2dd# [2aa	>
[4f#	.	.	]]
=34	=34	=34	=34
(4f#]	2c#	(4b#] 4dd#] 4aa]	.
4e))	.	4cc# 4ee 4gg#)	.
(8eL	2ryy	2r	.
8d#	.	.	.
8c#	.	.	.
8BJ)	.	.	.
*v	*v	*	*
*clefF4	*	*
!!LO:LB:g=z
=35	=35	=35
(2A#	2r	.
*	*clefF4	*clefF4
4B	(8EL	.
.	8D#	.
4B#	8C#	.
.	8BBJ)	.
=36	=36	=36
4c#	4AA#	.
4d#	4r	.
*	*clefG2	*clefG2
4e	(8eeL	.
.	8dd#	.
[4e#)	8cc#	.
.	8bJ	.
=37	=37	=37
*^	*	*
(<4e#]	1F#	2a#)\	<
2f#	.	.	[[
.	.	[2a# [2cc# [2ggn	>
[4en)	.	.	]]
=38	=38	=38	=38
(4e]	2B	4a#] 4cc#] (4ggnX]	.
4d#)	.	4b 4dd# 4ff#)	.
4B	8D#L	4r	.
.	8F#	.	.
*	*	*^	*
4B	8D#	4ff#	4b	p
.	8F#J	.	.	.
=39	=39	=39	=39	=39
(2c#	8EL	(4.ff#SSs	(2a#	.
.	8F#	.	.	.
.	8E	.	.	.
.	8F#J	8aa#	.	.
4B)	8D#L	4bb')	4b)	.
.	8F#	.	.	.
4B	8D#	4ff#	4b	.
.	8F#J	.	.	.
=40	=40	=40	=40	=40
(2c#	8EL	(4.ff#SSs	(2a#	.
.	8F#	.	.	.
.	8E	.	.	.
.	8F#J	8aa#	.	.
(4B)	8D#L	4bb')	4b)	.
.	8F#	.	.	.
4An)	8D#	4ryy	4b# (4bb#	.
.	8F#J	.	.	.
*	*	*v	*v	*
!!LO:LB:g=z
=41	=41	=41	=41
8G#L	4E	4cc# 4ccc#	.
8c#	.	.	.
8G#	4E	4dd# 4ddd#	.
8c#J	.	.	.
8A#L	4F#	4ee 4eee	.
8c#	.	.	.
8A#	4F#	4ff# 4fff#)	.
8c#J	.	.	.
=42	=42	=42	=42
8BL	2.BB	2ee ((2eee	.
8F#	.	.	.
8B	.	.	.
8F#J	.	.	.
8BL	.	4dd# 4ddd#))	.
8F#J	.	.	.
4B	8D#L	4b 4ff#	.
.	8F#J	.	.
=43	=43	=43	=43
*	*	*^	*
2c#	8EL	(4.ff#SSs	(2a#	.
.	8F#	.	.	.
.	8E	.	.	.
.	8F#J	8aa#	.	.
4B	8D#L	4bb')	4b)	.
.	8F#	.	.	.
4B	8D#	4ff#	4b	.
.	8F#J	.	.	.
=44	=44	=44	=44	=44
(2c#	8EL	(4.ff#SSs	(2a#	.
.	8F#	.	.	.
.	8E	.	.	.
.	8F#J	8aa#	.	.
(4B)yy	8D#L	4bb')	4b)	.
.	8F#	.	.	.
4An)	8D#	4ryy	4b# (4bb#	.
.	8F#J	.	.	.
*	*	*v	*v	*
=45	=45	=45	=45
8G#L	4E	4cc# 4ccc#	.
8c#	.	.	.
8G#	4E	4dd# 4ddd#	.
8c#J	.	.	.
8c#L	4F#	4ee 4eee	.
8e	.	.	.
8c#	4F#	4a# 4aa#)	.
8eJ	.	.	.
!!LO:LB:g=z
=46	=46	=46	=46
*	*	*^	*
4B	4BB	4b 4bb	4ryy	.
4r	2.ryy	4d# (4f#	2B	.
4r	.	[2ez [2gnz)	.	.
8r	.	.	(4A#	.
!	!	!	!	!LO:DY:rj:b=2
(24FF#LL	.	.	.	f
24GG#	.	.	.	.
24AA#JJ)	.	.	.	.
*v	*v	*	*	*
=47	=47	=47	=47
4BB	4e] 4g]	2.B)	.
4r	4d# (4f#	.	.
4r	[2ez [2g#z)	.	.
8r	.	(4A#	.
!	!	!	!LO:DY:rj:b=2
(24FF#LL	.	.	f
24GG#	.	.	.
24AA#JJ)	.	.	.
=48	=48	=48	=48
4BB	4e] 4g#]	2.B)	.
4r	4d# (4f#	.	.
4r	[2ez [2gnz)	.	.
8r	.	(4A#	.
!	!	!	!LO:DY:rj:b=2
(24FF#LL	.	.	f
24GG#	.	.	.
24AA#JJ)	.	.	.
=49	=49	=49	=49
4BB	4e] 4g]	2.B)	.
4r	4d# (4f#	.	.
4r	[2ez [2g#z)	.	.
8r	.	(4A#	.
!	!	!	!LO:DY:rj:b=2
(24FF#LL	.	.	f
24GG#	.	.	.
24AA#JJ)	.	.	.
=50	=50	=50	=50
4BB	4e] 4g#]	4B)	.
4BB' 4F#'	4d#' 4f#'	2.ryy	p
4C#' 4F#'	4e' 4a#'	.	.
4D#' 4F#'	4f#' 4b'	.	.
!!LO:LB:g=z
=51	=51	=51	=51
2E 2G# 2c#	(4.dd#	2e 2g#	.
.	8cc#)	.	.
4F#' 4d#'	4b'	4f#	.
4F#' 4c#'	4a#'	4f#	.
=52	=52	=52	=52
4r	4r	4f#	<
4D#' 4B'	4b'	4f#	.
4C#' 4A#'	4cc#'	4f#	.
4BB' 4B'	4dd#'	4f#	.
=53	=53	=53	=53
*^	*	*	*
(4.d#	2E	(4.ff#	2g#	f
8c#)	.	8ee)	.	.
4B'	4F#	4dd#'	4f#	.
4A#'	4F#	4cc#'	4f#	.
*v	*v	*	*	*
*	*v	*v	*
=54	=54	=54
4r	4f#' 4ff#'	ff
4D#' 4F#' 4B'	4f#' 4b' 4ff#'	.
4C#' 4E' 4A#'	4f#' 4a#' 4cc#' 4ff#'	.
4BB' 4D#' 4B'	4f#' 4b' 4dd#' 4ff#'	.
=55	=55	=55
4EE 4GG# 4C# 4E	4f## (4ff##	rfz
4r	4g#' 4gg#')	.
2r	2r	.
*	*clefF4	*clefF4
=56	=56	=56
4FF#'	4r	p
4r	4E' 4A#'	.
2r	2r	.
!!LO:LB:g=z
=57	=57	=57
(2BBB	8r	pp
.	8BB 8D# 8BL	.
.	8BB 8D# 8B	.
.	8BB 8D# 8BJ	.
2EE	8r	.
.	8BB 8G# 8BL	.
.	8BB 8G# 8B	.
.	8BB 8G# 8BJ	.
=58	=58	=58
2DD#	8r	.
.	8BB 8F# 8BL	.
.	8BB 8F# 8B	.
.	8BB 8F# 8BJ	.
2GG#	8r	.
.	8BB 8E 8BL	.
.	8BB 8E 8B	.
.	8BB 8E 8BJ	.
=59	=59	=59
*	*^	*
2FF#	2ryy	8r	.
.	.	8BB 8D# 8BL	.
.	.	8BB 8D# 8B	.
.	.	8BB 8D# 8BJ	.
2EE	8r	8r	.
.	8C# 8A# 8BL	8BBL	.
.	8C# 8A# 8B	8BB	.
.	8C# 8A# 8BJ	8BBJ	.
=60	=60	=60	=60
2DD#	2ryy	8r	.
.	.	8BB 8BL	.
.	.	8BB 8B	.
.	.	8BB 8BJ	.
2BBB)	8r	8r	.
.	8D# 8An 8BL	8BBL	.
.	8D# 8A 8B	8BB	.
.	8D# 8A 8BJ	8BBJ	.
*	*v	*v	*
*	*clefG2	*clefG2
=61	=61	=61
8EE	(2b	p
8E 8G# 8BL	.	.
8E 8G# 8B	.	.
8E 8G# 8BJ	.	.
8r	2e\ 2ee\	.
8E 8G# 8BL	.	.
8E 8G# 8B	.	.
8E 8G# 8BJ	.	.
!!LO:LB:g=z
=62:|!	=62:|!	=62:|!
*>B	*>B	*>B
8r	2ccn	.
8E 8A 8cnL	.	.
8E 8A 8c	.	.
8E 8A 8cJ	.	.
8r	2fn 2ffn)	.
8E 8A 8cL	.	.
8E 8A 8c	.	.
8E 8A 8cJ	.	.
=63	=63	=63
8r	2b' 2ffn'	<
8Dn 8Fn 8A 8BL	.	.
8D 8F 8A 8B	.	.
8D 8F 8A 8BJ	.	.
8r	2b' 2bb'	.
8D 8F 8A 8BL	.	.
8D 8F 8A 8B	.	.
8D 8F 8A 8BJ	.	.
=64	=64	=64
8r	2ddn' 2dddn'	.
8Dn 8Fn 8G#X 8BL	.	.
8D 8F 8G# 8B	.	.
8D 8F 8G# 8BJ	.	.
8r	2ffn' 2fffn'	.
8D 8F 8G# 8BL	.	.
8D 8F 8G# 8B	.	.
8D 8F 8G# 8BJ	.	.
=65	=65	=65
16CnLL	2.ee (2.eee	fp
16E	.	.
16A	.	.
16cnJJ	.	.
16CLL	.	.
16E	.	.
16A	.	.
16cJJ	.	.
16CLL	.	.
16E	.	.
16A	.	.
16cJJ	.	.
16CLL	8ddn 8dddnL	.
16E	.	.
16A	8ccn 8cccnJ)	.
16cJJ	.	.
!!LO:LB:g=z
=66	=66	=66
16CnLL	8b (8bbL	.
16E	.	.
16A	8a 8aa	.
16cnJJ	.	.
16CLL	8g#X 8gg#X	.
16E	.	.
16A	8a 8aaJ	.
16cJJ	.	.
16CLL	8g# 8gg#L	.
16E	.	.
16A	8a 8aa	.
16cJJ	.	.
16CLL	8b 8bb	.
16E	.	.
16A	8a 8aaJ)	.
16cJJ	.	.
=67	=67	=67
16DnLL	2.a (2.aa	.
16Fn	.	.
16A	.	.
16cnJJ	.	.
16DLL	.	.
16F	.	.
16A	.	.
16cJJ	.	.
16DLL	.	.
16F	.	.
16A	.	.
16cJJ	.	.
16DLL	8ddn 8dddnL	.
16F	.	.
16A	8ccn 8cccnJ)	.
16cJJ	.	.
=68	=68	=68
16DnLL	8b (8bbL	.
16Fn	.	.
16A	8a 8aa	.
16cnJJ	.	.
16DLL	8g#X 8gg#X	.
16F	.	.
16A	8a 8aaJ	.
16cJJ	.	.
16DLL	8g# 8gg#L	.
16F	.	.
16A	8a 8aa	.
16cJJ	.	.
16DLL	8b 8bb	.
16F	.	.
16A	8a 8aaJ)	.
16cJJ	.	.
=69	=69	=69
16ELL	[2a [2aa	.
16A	.	<
16cn	.	.
16eJJ	.	.
16ELL	.	.
16A	.	.
16c	.	.
16eJJ	.	.
16ELL	8a] 8aaL]	.
16A	.	.
16c	8ee (8eee	.
16eJJ	.	.
16ELL	8ddn 8dddn	.
16A	.	.
16c	8ccn 8cccnJ	.
16eJJ	.	.
!!LO:LB:g=z
=70	=70	=70
16ELL	8b 8bbL	.
16A	.	.
16cn	8a 8aa	.
16eJJ	.	.
16ELL	8g#X 8gg#X	.
16A	.	.
16c	8a 8aaJ	.
16eJJ	.	.
16ELL	8g# 8gg#L	.
16A	.	.
16c	8a 8aa	.
16eJJ	.	.
16ELL	8b 8bb	.
16A	.	.
16c	8a 8aaJ)	.
16eJJ	.	.
=71	=71	=71
16FnLL	2.a 2.aa	p
16A	.	.
16cn	.	.
16dnJJ	.	<
16FLL	.	.
16A	.	.
16c	.	.
16dJJ	.	.
16FLL	.	.
16A	.	.
16c	.	.
16dJJ	.	.
16FLL	8g#X (8gg#XL	.
16A	.	.
16c	8a 8aaJ	.
16dJJ	.	.
=72	=72	=72
16F#XLL	8g# 8gg#L	.
16A	.	.
16cn	8a 8aa	.
16dnJJ	.	.
16F#LL	8b 8bb	.
16A	.	.
16c	8a 8aaJ	.
16dJJ	.	.
16F#LL	8g# 8gg#L	.
16A	.	.
16c	8a 8aa	.
16dJJ	.	.
16F#LL	8b 8bb	.
16A	.	.
16c	8ccn 8cccnJ)	.
16dJJ	.	.
=73	=73	=73
16GnLL	2.ccn (2.cccn	.
16cn	.	.
16e	.	.
16gnJJ	.	.
16GLL	.	.
16c	.	.
16e	.	.
16gJJ	.	.
16GLL	.	.
16c	.	.
16e	.	.
16gJJ	.	.
16GLL	8ddn 8dddnL	.
16c	.	.
16e	8ee 8eeeJ)	.
16gJJ	.	.
!!LO:LB:g=z
=74	=74	=74
16GGnLL	4ee (4eee	.
16Dn	.	.
16Fn	.	.
16GnJJ	.	.
16GGLL	2ffn 2fffn	rfz
16D	.	.
16F	.	.
16GJJ	.	.
16GGLL	.	.
16D	.	.
16F	.	.
16GJJ	.	.
16GGLL	4b 4bb)	.
16D	.	.
16F	.	.
16GJJ	.	.
=75	=75	=75
16CnLL	2.ccn 2.cccn	p
16E	.	.
16Gn	.	.
16cnJJ	.	.
16CLL	.	.
16E	.	.
16G	.	.
16cJJ	.	.
16CLL	.	.
16E	.	.
16G	.	.
16cJJ	.	.
16CLL	8gn (8ggnL	.
16E	.	.
16G	8fn 8ffnJ)	.
16cJJ	.	.
=76	=76	=76
16CnLL	8fn (8ffnL<	.
16E	.	.
16Gn	8e 8ee	.
16cnJJ	.	.
16CLL	8d#X 8dd#X	.
16E	.	.
16G	8e 8eeJ	.
16cJJ	.	.
16CLL	8d# 8dd#L<	.
16E	.	.
16G	8e 8ee	.
16cJJ	.	.
16CLL	8f 8ff	.
16E	.	.
16G	8e 8eeJ)	.
16cJJ	.	.
=77	=77	=77
16BBLL	2.e\ 2.ee\	pp
16E	.	.
16Gn	.	.
16BJJ	.	.
16BBLL	.	.
16E	.	.
16G	.	.
16BJJ	.	.
16BBLL	.	.
16E	.	.
16G	.	.
16BJJ	.	.
16BBLL	8gn (8ggnL	.
16E	.	.
16G	8f#X 8ff#XJ)	.
16BJJ	.	.
!!LO:LB:g=z
=78	=78	=78
16BBLL	8f# (8ff#L<	.
16E	.	.
16Gn	8e 8ee	.
16BJJ	.	.
16BBLL	8d#X 8dd#X	.
16E	.	.
16G	8e 8eeJ	.
16BJJ	.	.
16BBLL	8d# 8dd#L<	.
16E	.	.
16G	8e 8ee	.
16BJJ	.	.
16BBLL	8f# 8ff#	.
16E	.	.
16G	8e 8eeJ)	.
16BJJ	.	.
=79	=79	=79
16AA#LL	2.e\ (2.ee\	.
16E	.	<
16Gn	.	.
16c#XJJ	.	.
16AA#LL	.	.
16E	.	.
16G	.	.
16c#JJ	.	.
16AA#LL	.	.
16E	.	.
16G	.	.
16c#JJ	.	.
16AA#LL	4ee 4eee)	.
16E	.	.
16G	.	.
16c#JJ	.	.
=80	=80	=80
16AA#LL	[2ee [2eee	rf
16E	.	.
16Gn	.	.
16c#XJJ	.	.
16AA#LL	.	.
16E	.	.
16G	.	.
16c#JJ	.	.
16AA#LL	8ee] 8eeeL]	.
16E	.	.
16G	8gn (8ggn	.
16c#JJ	.	.
16AA#LL	8f# 8ff#	.
16E	.	.
16G	8e 8eeJ)	.
16c#JJ	.	.
=81	=81	=81
*^	*	*
(2BB	[1BB	8d# 8dd#	p
.	.	8B 8d# 8bL	.
.	.	8B 8d# 8b	.
.	.	8B 8d# 8bJ	.
2E	.	8r	.
.	.	8B 8gn 8bL	.
.	.	8B 8g 8b	.
.	.	8B 8g 8bJ	.
!!LO:LB:g=z
=82	=82	=82	=82
2D#	1BB]	8r	.
.	.	8B 8f# 8bL	.
.	.	8B 8f# 8b	.
.	.	8B 8f# 8bJ	.
2Gn	.	8r	.
.	.	8B 8e 8bL	.
.	.	8B 8e 8b	.
.	.	8B 8e 8bJ	.
=83	=83	=83	=83
*	*	*^	*
8F#)	8BB	(2b	8r	.
8BL	4.ryy	.	8d#L	.
8B	.	.	8d#	.
8BJ	.	.	8d#J	.
8r	2ryy	2ee	8re	.
8BL	.	.	8e 8g#L	.
8B	.	.	8e 8g#	.
8BJ	.	.	8e 8g#J	.
*v	*v	*	*	*
=84	=84	=84	=84
8r	2dd#	8re	.
8BL	.	8d# 8f#L	.
8B	.	8d# 8f#	.
8BJ	.	8d# 8f#J	.
8r	2a#)	8r	.
8BL	.	8c# 8eL	.
8B	.	8c# 8e	.
8BJ	.	8c# 8eJ	.
*	*v	*v	*
=85	=85	=85
*^	*	*
(2BB	[1BB	8r	.
.	.	8B 8d# 8bL	.
.	.	8B 8d# 8b	.
.	.	8B 8d# 8bJ	.
2E	.	8r	.
.	.	8B 8gn 8bL	.
.	.	8B 8g 8b	.
.	.	8B 8g 8bJ	.
=86	=86	=86	=86
2D#	1BB]	8r	.
.	.	8B 8f# 8bL	.
.	.	8B 8f# 8b	.
.	.	8B 8f# 8bJ	.
2Gn	.	8r	.
.	.	8B 8e 8bL	.
.	.	8B 8e 8b	.
.	.	8B 8e 8bJ	.
!!LO:LB:g=z
=87	=87	=87	=87
*	*	*^	*
8F#)	8BB	(2b	8r	.
8BL	4.ryy	.	8d#L	.
8B	.	.	8d#	.
8BJ	.	.	8d#J	.
8r	2ryy	2ee	8re	.
8BL	.	.	8e 8gnL	.
8B	.	.	8e 8g	.
8BJ	.	.	8e 8gJ	.
*v	*v	*	*	*
=88	=88	=88	=88
8r	2dd#	8re	.
8BL	.	8d# 8f#L	.
8B	.	8d# 8f#	.
8BJ	.	8d# 8f#J	.
8r	2a#)	8r	.
8BL	.	8c# 8eL	.
8B	.	8c# 8e	.
8BJ	.	8c# 8eJ	.
=89	=89	=89	=89
8r	(2b	8r	.
8BBL	.	8B 8d#L	.
8BB	.	8B 8d#	.
8BBJ	.	8B 8d#J	.
8r	2an	8r	>
8BBL	.	8c# 8eL	.
8BB	.	8c# 8e	.
8BBJ	.	8c# 8eJ	.
=90	=90	=90	=90
8r	2g#X	8r	.
8BBB 8BBL	.	8B 8eL	.
8BBB 8BB	.	8B 8e	.
8BBB 8BBJ	.	8B 8eJ	.
8r	2f#)	8r	.
8BBB 8BBL	.	8A 8d#L	.
8BBB 8BB	.	8A 8d#	.
8BBB 8BBJ	.	8A 8d#J	.
*	*v	*v	*
=91	=91	=91
16r	2B 2e 2g# 2b	f
(16EELL	.	.
16FF#	.	.
16GG#JJ	.	.
16AALL	.	.
16BB	.	.
16C#	.	.
16D#JJ	.	.
16ELL	2e 2g# 2b 2ee	.
16F#	.	.
16G#	.	.
16AJJ	.	.
16BLL	.	.
16c#	.	.
16d#	.	.
16eJJ)	.	.
!!LO:LB:g=z
=92	=92	=92
16r	2a 2cc#	.
(16EELL	.	.
16FF#	.	.
16GG#JJ	.	.
16AALL	.	.
16BB	.	.
16C#	.	.
16D#JJ	.	.
16ELL	2a 2cc# 2ff#	.
16F#	.	.
16G#	.	.
16AJJ	.	.
16BLL	.	.
16c#	.	.
16d#)	.	.
16eJJ	.	.
=93	=93	=93
*	*^	*
16r	2b 2dd#	2a	.
(16ELL	.	.	.
16F#	.	.	.
16G#JJ	.	.	.
16ALL	.	.	.
16B	.	.	.
16c#	.	.	.
16d#JJ	.	.	.
*clefG2	*	*	*
16eLL	4bb'	4ff#'y 4aa'y	.
16f#	.	.	.
16g#	.	.	.
16aJJ	.	.	.
16bLL	4bb'	4ff#'y 4aa'y	.
16cc#	.	.	.
16ddn	.	.	.
16dd#JJ)	.	.	.
=94	=94	=94	=94
2.ee	(4.bb	2.gg#	rfz >
.	16ccc#LL	.	.
.	16ddd#JJ)	.	.
.	4eee'	.	.
4r	4r	4ryy	]
*	*v	*v	*
=95	=95	=95
2r	(16gg#LL	p
.	16ee	.
.	16aa	.
.	16ff#JJ	.
.	16bbLL	.
.	16gg#	.
.	16ccc#	.
.	16aaJJ	.
(16g#LL	4bb)	.
16e	.	.
16a	.	.
16f#JJ	.	.
16bLL	4r	.
16g#	.	.
16cc#	.	.
16aJJ	.	.
*	*clefF4	*clefF4
!!LO:LB:g=z
=96	=96	=96
4b/)	(16G#LL	.
.	16E	.
.	16A	.
.	16F#JJ	.
4r	16BLL	.
.	16G#	.
.	16c#	.
.	16AJJ	.
*clefF4	*	*
(16GG#LL	4B)	<
16EE	.	.
16AA	.	.
16FF#JJ	.	.
16BBLL	4r	.
16GG#	.	.
16C#	.	.
16AA#JJ)	.	.
*	*clefG2	*clefG2
=97	=97	=97
*^	*^	*
4r	1BB	8r	8r	.
.	.	(8BL	[4.B	.
8r	.	8g#	.	.
(<8G#	.	8eJ	.	.
8D#L	.	8aL	2B]	.
8F#J	.	8f#	.	.
4A)	.	8d#	.	.
.	.	8bJ)	.	.
*	*	*	*	*
=98	=98	=98	=98	=98
(32qBBLLL	.	.	.	.
32qE	.	.	.	.
32qG#JJJ	.	.	.	.
1B)	4.ryy	8r	8ryy	.
.	.	(8bL	[4.bsSSs\	.
.	.	8gg#	.	.
!	!LO:TX:i:a:t=m.g.	!	!	!
.	(<8g#>	8eeJ	.	.
.	8d#>L	8aanL	2b\]	.
.	8f#>J	8ff#	.	.
.	4a>)	8dd#	.	.
.	.	[8bbJ)	.	.
*v	*v	*	*	*
=99	=99	=99	=99
4c# 4e	(4.bb]	2b	.
(4G#	.	.	.
.	16aaLL	.	.
.	16gg#JJ	.	.
4A	8ff#L	2cc#	.
.	8ee	.	.
4A#)	8dd#	.	.
.	8cc#J)	.	.
*	*v	*v	*
!!LO:LB:g=z
=100	=100	=100
*^	*^	*
*	*	*	*^	*
(2B	2rBB	1b	(>4g#/	(<2.e\	.
.	.	.	4gn/	.	.
4A#	2BB	.	2f#/)	.	.
4An)	.	.	.	4d#\)	.
*v	*v	*	*	*	*
*	*	*v	*v	*
=101	=101	=101	=101
4E 4G#X	(4.b	2B 2e	.
(4GG#	.	.	.
.	16aLL	.	.
.	16g#XJJ	.	.
4AA	8f#L	2c#	.
.	8e	.	.
4AA#)	8d#	.	.
.	8c#J)	.	.
=102	=102	=102	=102
*^	*	*	*
*	*^	*	*	*
1BB	2rCC	2.E\	(4G#<	1B	.
.	.	.	4Gn<	.	>
.	2BBB	.	2F#<)	.	.
.	.	4D#\	.	.	.
*v	*v	*v	*	*	*
*	*v	*v	*
=103	=103	=103
16rCC	2E< 2Gn<	pp
16CCnLL	.	.
16DDn	.	.
16EEJJ	.	.
16FFnLL	.	.
16GGn	.	.
16AA	.	.
16BBJJ	.	.
8CnL	2E< 2G< 2cn<	.
8C	.	.
8C	.	.
8CJ	.	.
=104	=104	=104
16rCC	2Dn< 2Fn< 2B<	.
16CCnLL	.	.
16DDn	.	.
16EEJJ	.	.
16FFnLL	.	.
16GGn	.	.
16AA	.	.
16BBJJ	.	.
8CnL	2Gn< 2B< 2dn 2fn	.
8C	.	.
8C	.	.
8CJ	.	.
!!LO:LB:g=z
=105	=105	=105
*^	*	*
2Gn	[1Cn	16r	.
.	.	(16eLL	<
.	.	16fn	.
.	.	16gnJJ	.
.	.	16aLL	.
.	.	16b	.
.	.	16ccn	.
.	.	16ddnJJ)	.
2cn	.	8ee'L	.
.	.	(16ffnL	.
.	.	16ggnJJ	.
.	.	16aaLL	.
.	.	16bb	.
.	.	16cccn	.
.	.	16dddnJJ)	.
=106	=106	=106	=106
1A#	2C]	4eee'	f
.	.	16dd#XLL	.
.	.	16ee	.
.	.	16dd#	.
.	.	16eeJJ	.
.	2Cn	16d#LL	.
.	.	16e	.
.	.	16d#	.
.	.	16eJJ	.
.	.	16d#LL	.
.	.	16e	.
.	.	16gn	.
.	.	16eJJ	.
=107	=107	=107	=107
8B	8BBL	(4d#	.
8rA	8BB	.	.
4rA	8BB	4B)	.
.	8BBJ	.	.
(2E	8BBL	2A# 2c#X (>2gn	f
.	8BB	.	.
.	8BB	.	.
.	8BBJ	.	.
=108	=108	=108	=108
*	*	*^	*
2D#	8BBL	4f#	2B	.
.	8BB	.	.	.
.	8BB	4d#)	.	.
.	8BBJ	.	.	.
2Gn	8BBL	(2a#	(4.c#	p
.	8BB	.	.	.
.	8BB	.	.	.
.	8BBJ	.	16d#LL	.
.	.	.	16eJJ)	.
!!LO:LB:g=z
=109	=109	=109	=109	=109
2F#)	8BBL	2b)	(4d#	.
.	8BB	.	.	.
.	8BB	.	4B)	.
.	8BBJ	.	.	.
*clefG2	*	*	*	*
(2e	8BL	2ryy	2a# 2cc# (2ggn	f
.	8B	.	.	.
.	8B	.	.	.
.	8BJ	.	.	.
=110	=110	=110	=110	=110
2d#	8BL	4ff#	2b	.
.	8B	.	.	.
.	8B	4dd#)	.	.
.	8BJ	.	.	.
2gn	8BL	2aa#	(>4.cc#	p
.	8B	.	.	.
.	8B	.	.	.
.	8BJ	.	16dd#LL	.
.	.	.	16eeJJ)	.
=111	=111	=111	=111	=111
2f#	8BL	2bb	(4dd#	.
.	8B	.	.	.
.	8B	.	4b)	.
.	8BJ	.	.	.
*	*	*	*^	*
2e 2gn	8BL	2aa#	(4.ee	2cc#\	rfz
.	8B	.	.	.	.
.	8B	.	.	.	.
.	8BJ	.	16ff#LL	.	.
.	.	.	16ggnJJ)	.	.
*	*	*	*v	*v	*
*v	*v	*	*	*
*	*v	*v	*
=112	=112	=112
4B' 4d#' 4f#')	4dd#' 4ff#' 4bb'	f
4r	4r	.
*clefF4	*	*
4BB' 4D#' 4F#' 4B'	4d#' 4f#' 4b'	.
4r	4r	.
=113	=113	=113
4BBB'y 4BB'y	4D#<' 4F#<' 4B<'	.
4r	4r	.
2ryy	(8bbL	p
.	8aa	.
.	8gg#X	.
.	8ff#J)	.
!!LO:LB:g=z
=114	=114	=114
1r	2ee	.
.	(4ff#'	.
.	4ff##'	.
=115	=115	=115
1r	4gg#'	.
.	4aa'	.
.	4aa#'	.
.	4bb')	.
=116	=116	=116
*	*^	*
2r	(4bb#	2r	.
.	2ccc#	.	.
*clefG2	*	*	*
2e# ((2g#	.	[2cc#	<
.	[4bbn)	.	[[
=117	=117	=117	=117
2f# 2a))	4bb]	2cc#]	>
.	4aa	.	]
.	(32qgg#LLL	.	.
.	32qaa	.	.
.	32qbbJJJ	.	.
2r	(8aaL)	2ryy	.
.	8gg#	.	.
.	8ff#	.	.
.	8eeJ)	.	.
*	*v	*v	*
=118	=118	=118
1r	2dd#	.
.	(4ee'	.
.	4ee#'	.
=119	=119	=119
1r	4ff#'	.
.	4ff##'	.
.	4gg#	.
.	4aa')	.
=120	=120	=120
*	*^	*
2r	(4aa#	2r	.
.	2bb	.	.
2d# ((2f#	.	[2b	.
.	[4aan)	.	.
!!LO:LB:g=z
=121	=121	=121	=121
2e 2g#))	(4aa]	2b]	.
.	4gg#)	.	.
!	!	!	!LO:DY:b=2
(8bL	2r	2ryy	p
8a	.	.	.
8g#	.	.	.
8f#J	.	.	.
*	*v	*v	*
=122	=122	=122
2e	2r	.
*	*clefF4	*clefF4
4f#	8BL	p
.	8A	.
4g#	8G#	.
.	8F#J	.
=123	=123	=123
4a	4E#	.
4a#	4r	.
*	*clefG2	*clefG2
4b/	8bbL	.
.	8aa	.
[4b#/)	8gg#	.
.	8ff#J	.
=124	=124	=124
*^	*	*
(4b#]	1c#	2ee#	.
2cc#	.	.	.
.	.	[2ee# [2gg# [2dddn	<
[4bn)	.	.	.
=125	=125	=125	=125
(4b]	2f#	4ee#] 4gg#] 4ddd]	>
4an)	.	4ff# 4aa 4ccc#	.
(8aL	2ryy	2r	.
8g#	.	.	.
8f#	.	.	.
8eJ	.	.	.
*v	*v	*	*
*	*clefF4	*clefF4
=126	=126	=126
2d#	2r	.
4e	8AL	.
.	8G#	.
4f#	8F#	.
.	8EJ	.
!!LO:LB:g=z
=127	=127	=127
4f##	4D#	.
4g#	4r	.
*	*clefG2	*clefG2
4a	(8aaL	.
.	8gg#	.
[4a#)	8ff#	.
.	8eeJ)	.
=128	=128	=128
*^	*	*
(4a#]	1B	2dd#	<
2b	.	.	.
.	.	[2dd# [2ff# [2cccn	[
[4an)	.	.	.
=129	=129	=129	=129
(4a]	2e	4dd#] 4ff#] (4cccn]	>
4g#)	.	4ee 4gg# 4bb)	.
*v	*v	*	*
*clefF4	*	*
(8G#L	4r	] p
8B	.	.
*	*^	*
8G#	4b'	4e	.
8BJ)	.	.	.
=130	=130	=130	=130
(8AL	(4.bSSs	(2d#	.
8B	.	.	.
8A	.	.	.
8BJ)	8dd#	.	.
(8G#L	4ee')	4e)	.
8B	.	.	.
8G#	4b'	4e	.
8BJ)	.	.	.
=131	=131	=131	=131
(8AL	(4.bSSs	(2d#	.
8B	.	.	.
8A	.	.	.
8BJ)	8dd#)	.	.
(8G#L	4ee'	4e)	.
8B	.	.	.
8G#	(4ee#	4e#	.
8BJ)	.	.	.
*	*v	*v	*
!!LO:LB:g=z
=132	=132	=132
(8AL	4f# 4ff#	.
8c#	.	.
8A	4g# 4gg#	.
8c#J)	.	.
(8BL	4a 4aa	.
8d#	.	.
8B	4b 4bb)	.
8d#J)	.	.
=133	=133	=133
*^	*	*
8EL	2.E	2a (2aa	.
8B	.	.	.
8d#	.	.	.
8BJ	.	.	.
8eL	.	4g# 4gg#)	.
8B	.	.	.
8e	4G#	4b 4bb	.
8BJ	.	.	.
=134	=134	=134	=134
*	*	*^	*
(2f#	8AL	(4.bbSSs	(2dd#	<
.	8B	.	.	.
.	8A	.	.	.
.	8BJ	8ddd#)	.	.
4e)	8G#L	4eee'	4ee)	[
.	8B	.	.	>
4e	8G#	4bb'	4b	.
.	8BJ	.	.	]]
=135	=135	=135	=135	=135
(2f#	8AL	(4.bbSSs	(2dd#	<
.	8B	.	.	.
.	8A	.	.	.
.	8BJ	8ddd#)	.	[
8eL)	4G#	4eee'	4ee)	>
8B	.	.	.	.
8e#	4G#	(4dddn	4ee#	.
8BJ	.	.	.	]]
=136	=136	=136	=136	=136
4f#	8AL	4ccc#	4ff#	.
.	8c#	.	.	.
4r	8A	4gg#	4g#	.
.	8c#J	.	.	.
8F#L	4BB	4aa	4a	.
8A	.	.	.	.
8F#	4BB	4dd#)	4d#	.
8AJ	.	.	.	.
!!LO:LB:g=z
=137	=137	=137	=137	=137
4G#	4E	(4ee	2.e	.
4r	2.ryy	4g# 4b	.	.
4r	.	[2az [2ccnz)	.	.
8r	.	.	(4d#	.
!	!	!	!	!LO:DY:rj:b=2
(24BBLL	.	.	.	f
24C#	.	.	.	.
24D#JJ)	.	.	.	.
*v	*v	*	*	*
*	*v	*v	*
=138	=138	=138
*	*^	*
4E	(4a] 4cc]	2.e)	.
4r	4g# 4b	.	.
4r	[2az [2cc#z)	.	.
8r	.	(4d#	.
!	!	!	!LO:DY:rj:b=2
(24BBBLL	.	.	f
24CC#	.	.	.
24DD#JJ)	.	.	.
*	*v	*v	*
=139	=139	=139
*	*^	*
4EE	4a] (4cc#]	2.e)	.
4r	4g# 4b	.	.
4r	[2az [2ccnz)	.	.
8r	.	(4d#	.
!	!	!	!LO:DY:rj:b=2
(24BBLL	.	.	f
24C#	.	.	.
24D#JJ)	.	.	.
*	*v	*v	*
=140	=140	=140
*	*^	*
4E	(4a] 4ccnX]	2.e)	.
4r	4g# 4b	.	.
4r	[2az [2cc#z)	.	.
8r	.	(4d#	.
!	!	!	!LO:DY:rj:b=2
(24BBBLL	.	.	f
24CC#	.	.	.
24DD#JJ)	.	.	.
*	*v	*v	*
=141	=141	=141
*	*^	*
4EE	4a] 4cc#]	4e)	.
4E' 4B'	2.ryy	4g#' 4b'	p
4F#' 4B'	.	4a' 4dd#'	.
4G#' 4B'	.	4b' 4ee'	.
!!LO:LB:g=z
=142	=142	=142	=142
2A 2c# 2f#	(4.gg#	2a 2cc#	.
.	8ff#)	.	.
4B' 4g#'	4ee'	4b	.
4B' 4f#'	4dd#'	4b	.
=143	=143	=143	=143
4r	4r	4b	<
4G#' 4B'	4ee'	4b	.
4F#' 4d#'	4ff#'	4b	.
4E' 4e'	4gg#'	4b	.
=144	=144	=144	=144
*^	*	*	*
(4.g#	2A	(4.bb	2cc#	sf
8f#)	.	8aa)	.	.
4e'	4B''	4gg#'	4b	.
4d#'	4B	4ff#'	4b	.
*v	*v	*	*	*
*	*v	*v	*
=145	=145	=145
4r	4b' 4bb'	ff
4G#' 4B' 4e'	4b' 4ee' 4bb'	.
4F#' 4A' 4d#'	4b' 4dd#' 4ff#' 4bb'	.
4E' 4G#' 4B' 4e'	4b' 4ee' 4gg#' 4bb'	.
=146	=146	=146
4AA 4C# 4F# 4A	4b# (4bb#	sf
4r	4cc#' 4ccc#')	.
2r	2r	.
=147	=147	=147
4BBB' 4BB'	4r	p
*	*clefF4	*clefF4
4r	4A' 4d#'	.
2r	2r	.
!!LO:LB:g=z
=148	=148	=148
(2EE	8r	pp
.	8E 8G# 8eL	.
.	8E 8G# 8e	.
.	8E 8G# 8eJ	.
2AA	8r	.
.	8E 8c# 8eL	.
.	8E 8c# 8e	.
.	8E 8c# 8eJ	.
=149	=149	=149
2GG#	8r	.
.	8E 8B 8eL	.
.	8E 8B 8e	.
.	8E 8B 8eJ	.
2C#)	8r	.
.	8E 8A 8eL	.
.	8E 8A 8e	.
.	8E 8A 8eJ	.
=150	=150	=150
(2BB	8r	.
.	8E 8G# 8eL	.
.	8E 8G# 8e	.
.	8E 8G# 8eJ	.
2AA	8r	.
.	8E 8c# 8eL	.
.	8E 8c# 8e	.
.	8E 8c# 8eJ	.
=151	=151	=151
2GG#)	8r	.
.	8E 8B 8eL	.
.	8E 8B 8e	.
.	8E 8B 8eJ	.
(2FFFn 2FFn	8r	rfz
.	8E 8A 8d# 8eL	.
.	8E 8A 8d# 8e	.
.	8E 8A 8d# 8eJ	.
=152	=152	=152
2EEE) 2EE	8r	.
.	8E 8G# 8eL	.
.	8E 8G# 8e	.
.	8E 8G# 8eJ	.
(2FFF#X 2FF#X	8r	rfz
.	8E 8A 8d# 8eL	.
.	8E 8A 8d# 8e	.
.	8E 8A 8d# 8eJ	.
!!LO:LB:g=z
=153	=153	=153
2EEE) 2EE	8r	.
.	8E 8G# 8eL	.
.	8E 8G# 8e	.
.	8E 8G# 8eJ	.
(2FFFn 2FFn	8r	rfz
.	8E 8A 8d# 8eL	.
.	8E 8A 8d# 8e	.
.	8E 8A 8d# 8eJ	.
=154	=154	=154
2EEE) 2EE	8r	.
.	8E 8G# 8eL	.
.	8E 8G# 8e	.
.	8E 8G# 8eJ	.
2FFF#X 2FF#X	8r	rfz
.	8E 8A 8d# 8eL	.
.	8E 8A 8d# 8e	.
.	8E 8A 8d# 8eJ	.
*	*clefG2	*clefG2
=155	=155	=155
*	*^	*
8r	(2e	8r	p
8EEL	.	8G# 8BL	.
8EE	.	8G# 8B	.
8EEJ	.	8G# 8BJ	.
8r	2a	8rc	.
8EE 8D#L	.	8B 8f#L	.
8EE 8D#	.	8B 8f#	.
8EE 8D#J	.	8B 8f#J	.
=156	=156	=156	=156
8r	2g#	8rc	.
8EE 8EL	.	8B 8eL	.
8EE 8E	.	8B 8e	.
8EE 8EJ	.	8B 8eJ	.
8r	2dd#)	8rg	.
8EE 8AA 8F#L	.	8d# 8bL	.
8EE 8AA 8F#	.	8d# 8b	.
8EE 8AA 8F#J	.	8d# 8bJ	.
=157	=157	=157	=157
8r	(2ee	8rg	.
8EE 8GG# 8EL	.	8e 8bL	.
8EE 8GG# 8E	.	8e 8b	.
8EE 8GG# 8EJ	.	8e 8bJ	.
8r	2aa	8r	.
8EE 8D#L	.	8b 8ff#L	.
8EE 8D#	.	8b 8ff#	.
8EE 8D#J	.	8b 8ff#J	.
!!LO:LB:g=z
=158	=158	=158	=158
8r	2gg#	8r	.
8EE 8EL	.	8b 8eeL	.
8EE 8E	.	8b 8ee	.
8EE 8EJ	.	8b 8eeJ	.
8r	2ddd#)	8r	.
8EE 8AA 8F#L	.	8dd# 8bbL	.
8EE 8AA 8F#	.	8dd# 8bb	.
8EE 8AA 8F#J	.	8dd# 8bbJ	.
=159	=159	=159	=159
8r	(2eee	8r	.
8EE 8GG# 8EL	.	8ee 8bbL	>
8EE 8GG# 8E	.	8ee 8bb	.
8EE 8GG# 8EJ	.	8ee 8bbJ	.
8r	2ddd#	8r	.
8EE 8AA 8F#L	.	8dd# 8bbL	.
8EE 8AA 8F#	.	8dd# 8bb	.
8EE 8AA 8F#J	.	8dd# 8bbJ	.
=160	=160	=160	=160
8r	2eee	8r	.
8EE 8GG# 8EL	.	8ee 8bbL	.
8EE 8GG# 8E	.	8ee 8bb	.
8EE 8GG# 8EJ	.	8ee 8bbJ	.
8r	2ddd#)	8r	.
8EE 8AA 8F#L	.	8dd# 8bbL	.
8EE 8AA 8F#	.	8dd# 8bb	.
8EE 8AA 8F#J	.	8dd# 8bbJ	.
=161	=161	=161	=161
8r	2eee	8r	pp
8EE 8GG# 8BB 8EL	.	8ee 8gg# 8bbL	.
8EE 8GG# 8BB 8E	.	8ee 8gg# 8bb	.
8EE 8GG# 8BB 8EJ	.	8ee 8gg# 8bbJ	.
8r	2eee	8r	.
8EE 8GG# 8BB 8EL	.	8ee 8gg# 8bbL	.
8EE 8GG# 8BB 8E	.	8ee 8gg# 8bb	.
8EE 8GG# 8BB 8EJ	.	8ee 8gg# 8bbJ	.
=162	=162	=162	=162
4r	2eee	4r	.
4EE 4GG# 4BB 4E	.	4ee 4gg# 4bb	.
2r	2r	2r	.
*	*v	*v	*
==	==	==
*-	*-	*-
!!!RDF**kern: > = above
!!!RDF**kern: < = below
!!!verovio: beamFrenchStyle 1
!!!LOR: Durand 1915, plates 9327/9328, Paul Dukas, ed.
!!!URL-vhv: https://verovio.humdrum.org/?file=beethoven/sonatas/sonata09-1.krn
!!!URL-pdf: https://github.com/craigsapp/beethoven-piano-sonatas/blob/master/reference-edition/sonata09-1.pdf
!!!ENC: Craig Stuart Sapp
!!!END: 2008/02/10
!!!EED: Craig Stuart Sapp
!!!EEV: 2021/02/11
